src/assets/svg/funding-img3.svg

<svg width="58" height="52" viewBox="0 0 58 52" fill="none" xmlns="http://www.w3.org/2000/svg">
<path d="M31.1515 50.6421C30.8485 51.0974 30.3771 51.4138 29.841 51.5216C29.3048 51.6294 28.7478 51.5199 28.2923 51.217C20.5223 46.048 11.3948 43.2974 2.0625 43.3125C1.51549 43.3125 0.990886 43.0952 0.604092 42.7084C0.217298 42.3216 0 41.797 0 41.25C0 40.703 0.217298 40.1784 0.604092 39.7916C0.990886 39.4048 1.51549 39.1875 2.0625 39.1875C12.2078 39.1718 22.1302 42.1629 30.5766 47.783C31.0319 48.0859 31.3482 48.5573 31.456 49.0935C31.5639 49.6297 31.4543 50.1867 31.1515 50.6421ZM2.0625 30.9375C1.51549 30.9375 0.990886 31.1548 0.604092 31.5416C0.217298 31.9284 0 32.453 0 33C0 33.547 0.217298 34.0716 0.604092 34.4584C0.990886 34.8452 1.51549 35.0625 2.0625 35.0625C16.6414 35.0288 30.6455 40.7455 41.036 50.9721C41.2277 51.1692 41.4569 51.326 41.7101 51.4333C41.9632 51.5406 42.2353 51.5961 42.5103 51.5967C42.7852 51.5973 43.0575 51.5429 43.3112 51.4367C43.5648 51.3305 43.7946 51.1747 43.9872 50.9784C44.1797 50.782 44.331 50.5492 44.4323 50.2936C44.5335 50.0379 44.5826 49.7646 44.5767 49.4897C44.5707 49.2148 44.5099 48.9439 44.3977 48.6928C44.2856 48.4418 44.1243 48.2157 43.9235 48.0279C32.7637 37.0425 17.7219 30.9015 2.0625 30.9375ZM55.6875 35.0625C51.4717 35.0597 47.2692 35.5345 43.1604 36.4779C44.5766 37.5521 45.9516 38.683 47.2854 39.8707C50.063 39.4157 52.8729 39.1872 55.6875 39.1875C56.2345 39.1875 56.7591 39.4048 57.1459 39.7916C57.5327 40.1784 57.75 40.703 57.75 41.25C57.75 41.797 57.5327 42.3216 57.1459 42.7084C56.7591 43.0952 56.2345 43.3125 55.6875 43.3125C54.1406 43.3125 52.6118 43.3873 51.0855 43.5342C52.5155 45.0244 53.8854 46.5833 55.1951 48.2109C55.3745 48.421 55.5098 48.665 55.5931 48.9285C55.6764 49.1919 55.7059 49.4693 55.6799 49.7444C55.6539 50.0194 55.5729 50.2864 55.4418 50.5296C55.3106 50.7727 55.1319 50.987 54.9163 51.1598C54.7007 51.3326 54.4526 51.4602 54.1867 51.5353C53.9208 51.6103 53.6426 51.6311 53.3685 51.5965C53.0944 51.562 52.83 51.4727 52.5911 51.334C52.3521 51.1952 52.1435 51.0099 51.9776 50.7891C45.9994 43.2925 38.4056 37.2427 29.7627 33.0911C21.1197 28.9395 11.6508 26.7933 2.0625 26.8125C1.51549 26.8125 0.990886 26.5952 0.604092 26.2084C0.217298 25.8216 0 25.297 0 24.75C0 24.203 0.217298 23.6784 0.604092 23.2916C0.990886 22.9048 1.51549 22.6875 2.0625 22.6875C6.21308 22.6882 10.355 23.0653 14.4375 23.8141V14.4375C14.4375 14.1173 14.512 13.8015 14.6552 13.5151C14.7984 13.2287 15.0063 12.9796 15.2625 12.7875L31.7625 0.4125C32.1195 0.144742 32.5537 0 33 0C33.4463 0 33.8805 0.144742 34.2375 0.4125L50.7375 12.7875C50.9937 12.9796 51.2016 13.2287 51.3448 13.5151C51.4879 13.8015 51.5625 14.1173 51.5625 14.4375V22.8138C52.9315 22.7339 54.3056 22.6875 55.6875 22.6875C56.2345 22.6875 56.7591 22.9048 57.1459 23.2916C57.5327 23.6784 57.75 24.203 57.75 24.75C57.75 25.297 57.5327 25.8216 57.1459 26.2084C56.7591 26.5952 56.2345 26.8125 55.6875 26.8125C48.2809 26.7984 40.929 28.0801 33.9642 30.5998C35.5867 31.4591 37.1731 32.3855 38.7234 33.379C44.2318 31.7557 49.945 30.9335 55.6875 30.9375C56.2345 30.9375 56.7591 31.1548 57.1459 31.5416C57.5327 31.9284 57.75 32.453 57.75 33C57.75 33.547 57.5327 34.0716 57.1459 34.4584C56.7591 34.8452 56.2345 35.0625 55.6875 35.0625ZM26.8125 16.5H39.1875C39.7345 16.5 40.2591 16.7173 40.6459 17.1041C41.0327 17.4909 41.25 18.0155 41.25 18.5625V24.2189C43.2919 23.7789 45.3544 23.4352 47.4375 23.1877V15.4688L33 4.64062L18.5625 15.4688V24.701C20.6577 25.2166 22.7202 25.8337 24.75 26.5521V18.5625C24.75 18.0155 24.9673 17.4909 25.3541 17.1041C25.7409 16.7173 26.2655 16.5 26.8125 16.5ZM28.893 28.1712C31.5713 27.0213 34.321 26.0455 37.125 25.2502V20.625H28.875V28.1634L28.893 28.1712Z" fill="#00C700"/>
</svg>

<svg xmlns="http://www.w3.org/2000/svg" width="58" height="52" fill="none"><path fill="#00C700" d="M31.152 50.642a2.063 2.063 0 0 1-2.86.575 47.2 47.2 0 0 0-26.23-7.904 2.062 2.062 0 1 1 0-4.126 51.33 51.33 0 0 1 28.515 8.596 2.06 2.06 0 0 1 .574 2.86M2.061 30.937a2.062 2.062 0 1 0 0 4.125 55.38 55.38 0 0 1 38.974 15.91 2.064 2.064 0 1 0 2.887-2.944 59.48 59.48 0 0 0-41.86-17.09m53.626 4.125a55.8 55.8 0 0 0-12.528 1.416 68 68 0 0 1 4.125 3.393 52 52 0 0 1 8.403-.684 2.062 2.062 0 0 1 0 4.126c-1.547 0-3.076.074-4.602.221a71 71 0 0 1 4.11 4.677 2.062 2.062 0 1 1-3.218 2.578A63.68 63.68 0 0 0 2.063 26.813a2.062 2.062 0 1 1 0-4.125c4.15 0 8.292.377 12.375 1.126v-9.376a2.06 2.06 0 0 1 .824-1.65L31.763.412a2.06 2.06 0 0 1 2.475 0l16.5 12.375a2.06 2.06 0 0 1 .825 1.65v8.376a71 71 0 0 1 4.126-.127 2.062 2.062 0 0 1 0 4.125A63.5 63.5 0 0 0 33.963 30.6a67 67 0 0 1 4.76 2.779 59.9 59.9 0 0 1 16.964-2.441 2.062 2.062 0 0 1 0 4.125M26.812 16.5h12.375a2.06 2.06 0 0 1 2.063 2.063v5.656a67 67 0 0 1 6.188-1.031v-7.72L33 4.642 18.563 15.469V24.7a65 65 0 0 1 6.187 1.851v-7.99a2.06 2.06 0 0 1 2.063-2.062m2.081 11.671a68 68 0 0 1 8.232-2.92v-4.626h-8.25v7.538z"/></svg>
